X: 10074
T: JENNY'S BAWBEE -- Reel
R: reel
B: K\"ohler's Violin Repository, v.1, 1885 p.7 #4
F: http://www.archive.org/details/klersviolinrepos01edin
Z: 2011 John Chambers <jc:trillian.mit.edu>
M: C|
L: 1/8
K: D
f |\
abag fddf | gfed cAAf | abag fdcd | Bgec d2-d :|
e |\
fdge fdfa | Bged cBAg | fdge fdfa | Bgec d2(de) |
fdge fdfa | Bged cBAg | fdge afbg | fdec d2-d |]

%%sep 2 1 500

